X: 130
T: Jia n ge Song of the bride setting out
%%abc-version 2.0
%%abcx-abcm2ps-target-version 5.9.1 (29 Sep 2008)
%%abc-creator hum2abc beta
%%abcx-conversion-date 2013/10/02 07:44:27
%%abc-edited-by Helmut Schaffrath
%%humdrum-veritas 1707830508
%%humdrum-veritas-data 3931554084
%%continueall 1
%%barnumbers 0
L: 1/8
M: 2/4
K: C
E E G G [I:setbarnb 1]| 
G DE2 | 
C C D G | 
C/ C A,/G,2 | 
E E G G | 
G DE2 | 
C C D G | 
C/ C A,/G,2 | 
E E/ D/ E c | 
G3c | 
E E/ D/ E c | 
G4 | 
C> A, G,/ A,/ E | 
C4 |]  



